!!!COM: Claude Goudimel
!!!OMD: Psalm 135: Chante de Dieu le renom
**kern	**kern	**kern	**kern
*part4	*part3	*part2	*part1
*staff4	*staff3	*staff2	*staff1
*clefF4	*clefGv2	*clefG2	*clefG2
*k[f#c#]	*k[f#c#]	*k[f#c#]	*k[f#c#]
!!LO:TX:omd:t=
*M4/4	*M4/4	*M4/4	*M4/4
=1	=1	=1	=1
2D	2f#	2a	2dd
2E	2e	2g	2b
=2	=2	=2	=2
4F#	4c#	4f#	4a
4F#	4c#	4f#	4a
4E	4e	4g	4b
4AA	4e	4a	4cc#
=3	=3	=3	=3
2D	2f#	2a	2dd
2r	2r	2r	2r
=4	=4	=4	=4
2D	2d	2f#	2a
2GG	2d	2g	2b
=5	=5	=5	=5
4D	4d	4f#	4a
4E	2B	2e	4g
4BB	.	.	2f#
4D	4A	[4d	.
=6	=6	=6	=6
2AA	2A	4d]	2e
.	.	4c#	.
2D	2A	2d	2d
=7	=7	=7	=7
2r	2r	2r	2r
2D	2F#	2A	2d
=8	=8	=8	=8
2D	2A	2d	2f#
4AA	4A	4c#	4e
4D	4A	4d	4d
=9	=9	=9	=9
4D	4d	4A	4f#
4BB	4d	4B	4g
2AA	2c#	2e	2a
=10	=10	=10	=10
2r	2r	2r	2r
2D	2A	2d	2f#
=11	=11	=11	=11
2F#	2F#	2c#	2a
4E	4G#X	4e	4b
4A	4A	4e	4cc#
=12	=12	=12	=12
4D	4A	4f#	4dd
4E	4G#X	4e	4b
2AA	2A	2e	2a
=13	=13	=13	=13
2r	2r	2r	2r
2D	2d	2f#	2a
=14	=14	=14	=14
2E	2B	2e	2g
4BB	4B	4e-X	4f#
4AA	4cn	4en	4a
=15	=15	=15	=15
4Cn	4cn	4e	4g
4D	4A	4d	4f#
2AA	2A	2c#	2e
=16	=16	=16	=16
2r	2r	2r	2r
2AA	2A	2c#	2e
=17	=17	=17	=17
2D	2A	2d	2f#
4D	4F#	4d	4a
4GG	4B	[4e	4g
=18	=18	=18	=18
2AA	2A	4e]	2f#
.	.	2d	.
2AA	2A	.	2e
.	.	4c#	.
=19	=19	=19	=19
1DD	1A	1d	1d
==	==	==	==
*-	*-	*-	*-
!!!software: music21 v.9.7.1
!!!software: music21 v.8.3.0
!!!RDF**kern: > = above
!!!RDF**kern: < = below
